!!!OTL: Zhaimianhua
!!!ARE: Asia, China,ÿShandong Gaomi
!! III, 334
!!!SCT: C1761
!!!YEM: Copyright 1995, estate of Helmut Schaffrath.
**kern
*ICvox
*Ivox
*M2/4
*k[f#]
*G:
{8g
4g
16g
16a
=1
8dd
8a
4dd
=2
8dd
16dd
16aa
8gg
16ee
16dd
=3
16gg
16b
16a
16g
4a}
=4
{8dd
16dd
16dd
8gg
16b
16a
=5
8g
4g
16a
16e
=6
2d}
=7
{16a
16g
16a
16aa
8.gg
16ee
=8
16gg
16ee
16dd
16a
8dd
16a
16g}
=9
{16a
16g
16a
16aa
8.gg
16ee
=10
16gg
16ee
16dd
16a
8dd
16a
16g}
=11
{8g
4g
16g
16a
=12
8dd
8a
4dd
=13
8g
4g
16a
16e
=14
4.d}
{8ff#
=15
8ee
16dd
16ee
8ff#
16ee
16ee
=16
2dd}
==
!!!AGN: Xiaodiao
!!!AMT: simple duple
!!!AIN: vox
!!!EED: Helmut Schaffrath
!!!EEV: 1.0
*-
